Obsidian/actions/22s/stock_xfburn-blank-cdrw.svg

<svg height="22" viewBox="0 0 22 22" width="22" xmlns="http://www.w3.org/2000/svg"><path d="m11 3a8 8 0 0 0 -8 8 8 8 0 0 0 8 8 8 8 0 0 0 8-8 8 8 0 0 0 -8-8zm-2.828125 3.7578125 2.828125 2.8281255 2.828125-2.8281255 1.414063 1.4140625-2.828125 2.828125 2.828125 2.828125-1.414063 1.414063-2.828125-2.828125-2.828125 2.828125-1.4140625-1.414063 2.828125-2.828125-2.828125-2.828125z" fill="#bebebe"/></svg>

<svg xmlns="http://www.w3.org/2000/svg" width="22" height="22" version="1.1" viewBox="0 0 22 22">
 <defs>
  <style id="current-color-scheme" type="text/css">
   .ColorScheme-Text { color:#bebebe; } .ColorScheme-Highlight { color:#4285f4; }
  </style>
 </defs>
 <path style="fill:currentColor" class="ColorScheme-Text" d="m 11,3 a 8,8 0 0 0 -8,8 8,8 0 0 0 8,8 8,8 0 0 0 8,-8 8,8 0 0 0 -8,-8 z M 8.171875,6.7578125 11,9.585938 13.828125,6.7578125 15.242188,8.171875 12.414063,11 15.242188,13.828125 13.828125,15.242188 11,12.414063 8.171875,15.242188 6.7578125,13.828125 9.5859375,11 6.7578125,8.171875 Z"/>
</svg>
